X:1
T:Long Ago in Bethlehem
T:Long Ago in Bethlehem
T:Henry Davan Wetton
T:Evelyn Beale, 1905
T:Public Domain Courtesy of the Cyber Hymnal™
T:Public Domain Courtesy of the Cyber Hymnal™
C:Henry Davan Wetton
Z:Public Domain
Z:Courtesy of the Cyber Hymnal™
%%score 1 ( 2 3 ) ( 4 5 )
L:1/8
Q:1/4=90
M:3/4
K:Eb
V:1 treble 
V:2 treble 
V:3 treble 
V:4 bass 
V:5 bass 
V:1
|:!mp! e2 | d>c BG FE | F4 G2 | E4 E2 | G4 G2 | B^F B3 GB_F B3 c | dB d3 B | dB d3 c | c4 d2 | %9
w: 1.~Long,|long a- go in Beth- le-|hem The|Christ child|came, With|no one but the Mo- ther sweet To|warm His lit- tle|hands and feet, And|know His|
w: 2.~Yet|thou- sand an- gels wor- shiped|Him On|that dark|night, To|their dear Lord, on rev- erent knee Poor|shep- herds knelt, made|wise to see By|heav’n- ly|
 B4!f! e2 | d>c BG FE | F4 G2 | E4 E2 | G4 G2 | B3 G AB | B_d c3!<(! c x | f3 e!<)! dc | %17
w: name. How|won- der- ful to think that|He Was|God of|all! No|sign of Heav- en’s|bright es- tate, To|show that He was|
w: light. Still|in the long dark win- ter|hours The|Christ child|comes; Have|we no place, O|child- ren dear? Must|we not wish to|
!>(! dc B2!>)!!p! c2 |"^rall. e dim." A4 G2 | !fermata!E4 :|!pp! E2"^meno moso" |!>(! G3!>)! F EF | %22
w: rich and great, That|babe, so|small!|O|Christ child sweet, our|
w: keep Him here, In|our own|homes?|||
 G>F E2 G2 |!<(! B4!<)!!>(! F2!>)! | G4!mf! B2 | dc B3 d | fe d2 f2 | d3 c Bc | %28
w: in- fant king! We|child- ren|pray Make|in our hearts a|lit- tle place Where|we may keep Thee,|
w: ||||||
 AG F2"^rall. e dim." G2 | E4 E2 | !fermata!G4 |] %31
w: by Thy grace, On|Christ- mas|Day.|
w: |||
V:2
|: [EGe]2 | d>cBGFE | [A,CF]4 [A,B,DG]2 | [G,B,E]4 [A,CE]2 | [G,B,G]4 [EG]2 | B6- [DB]2 B3 c | %6
 d6- | [Fd]2 [=Ed]3 [Ec] | [_Ec]4 [Ed]2 | [DB]4 [EGe]2 | d>cBGFE | [A,CF]4 [A,B,DG]2 | %12
 [G,B,E]4 [A,CE]2 | [G,B,G]4 [EG]2 | B3 G AB | B_d [_Ec]3 [=Ec] x | f3 e dc | dc [FAB]2 [Gc]2 | %18
 [EA]4 [B,DG]2 | !fermata![B,E]4 :| E2 | G3 F EF | G>F E2 [EG]2 | [EB]4 [DF]2 | [EG]4 [GB]2 | %25
 dc [GB]3 [Gd] | fe [Fd]2 [_Af]2 | d3 c [AB][Gc] | [EA][DG] [B,F]2 [DG]2 | [CE]4 [CE]2 | %30
 !fermata![B,G]4 |] %31
V:3
|: x2 | [EG]2 [B,E]2 B,2 | x6 | x6 | x6 | ^F2 G4 E4 x2 | F2 G4 | x6 | x6 | x6 | [EG]2 [B,E]2 B,2 | %11
 x6 | x6 | x6 | E4 E2 | =E2 x5 | F4 =A2 | _A2 x4 | x6 | x4 :| x2 | _C4 C2 | B,4 x2 | x6 | x6 | %25
 ^F2 x4 | F2 x4 | A6- | x6 | x6 | x4 |] %31
V:4
|:!p! [E,,E,B,]2 | B,2 G,2 G,2 | [E,,B,,]4 [E,,B,,]2 | [E,,E,]4 [A,,E,]2 | [E,,E,]4 [E,B,]2 | %5
 B,6- B,6- | B,6- | B,6 | [F,B,]4 [F,=A,]2 | [B,,B,]4!f! [E,,E,B,]2 | B,2 G,2 G,2 | %11
 [E,,B,,]4 [E,,B,,]2 | [E,,E,]4 [A,,E,]2 | [E,,E,]4 [E,B,]2 | [E,_D]4 D2 | _DB, C3 z!<(! x | %16
 [F,=A,]4!<)! [F,E]2 | [B,,F][C,E] [D,D]2!p! [=E,_D]2 |"^rall. e dim." [F,_C]4 [B,,A,]2 | %19
 !fermata![F,,E,G,]4 :| E,2 | E,3 A, [A,,A,]2 | G,>A, G,2 [C,G,]2 | %23
!<(! [B,,G,]4!<)!!>(! [B,,B,]2!>)! | [E,B,]4 [E,B,]2 | B,D [G,D]3 [G,B,] | %26
 [A,=C]2 [B,D]2 [B,,B,D]2 | F3 E DE | CB, A,2"^rall. e dim." [B,,A,]2 | [C,G,]4 [A,,F,]2 | %30
 !fermata![E,,E,G,]4 |] %31
V:5
|: x2 | [E,,-E,]6 | x6 | x6 | x6 | F,2 G,2 =G,2 F,2 G,2 _G,2 | F,2 =E,4 | F,2 G,2 C,2 | x6 | x6 | %10
 [E,,-E,]6 | x6 | x6 | x6 | x4 F,G, | A,2 A,2 _G,2 B, | x6 | x6 | x6 | x4 :| x2 | A,,4 x2 | %22
 E,4 x2 | x6 | x6 | D,2 x4 | x6 | [B,,-B,]6 | B,,4 x2 | x6 | x4 |] %31

